X:86
T:Green Fields of America
M:C
L:1/8
K:G Major
B|c2ec B2dB|AGAB GEDE|GAGE DEGB|AGAB GFGB|!
c2ec B2dB|AGAB GEDE|GAGE DEGB|AGAB G3:|!
D|GABc d2ef|g3e dBGB|c2ec B2dB|AGAB GED|!
[1 E|GABc d2ef|g3e dBGB|c2ec B2dB|AGAB G3D:|!
[2 f|gfgd efge|dedc BGEF|GAGE EFGB|BGAB G4|]!
